src/assets/duotone/BoxSearch.svg

<svg width="24" height="24" viewBox="0 0 24 24"  xmlns="http://www.w3.org/2000/svg">
<path opacity="0.4" d="M20.0999 6.93998C20.0999 7.47998 19.8099 7.96995 19.3499 8.21995L17.6099 9.15995L16.1299 9.94999L13.0599 11.61C12.7299 11.79 12.3699 11.88 11.9999 11.88C11.6299 11.88 11.2699 11.79 10.9399 11.61L4.6499 8.21995C4.1899 7.96995 3.8999 7.47998 3.8999 6.93998C3.8999 6.39998 4.1899 5.90995 4.6499 5.65995L6.6199 4.59996L8.18991 3.74998L10.9399 2.27C11.5999 1.91 12.3999 1.91 13.0599 2.27L19.3499 5.65995C19.8099 5.90995 20.0999 6.39998 20.0999 6.93998Z" />
<path opacity="0.4" d="M9.90021 12.7899L4.0502 9.85989C3.6002 9.62989 3.08021 9.65989 2.65021 9.91989C2.22021 10.1799 1.97021 10.6399 1.97021 11.1399V16.6699C1.97021 17.6299 2.5002 18.4899 3.3602 18.9199L9.21021 21.8399C9.4102 21.9399 9.63022 21.9899 9.85022 21.9899C10.1102 21.9899 10.3702 21.9199 10.6002 21.7699C11.0302 21.5099 11.2802 21.0499 11.2802 20.5499V15.0199C11.2902 14.0799 10.7602 13.2199 9.90021 12.7899Z" />
<path opacity="0.4" d="M22.03 11.1502V16.6801C22.03 17.6301 21.5 18.4901 20.64 18.9201L14.79 21.8501C14.59 21.9501 14.37 22.0001 14.15 22.0001C13.89 22.0001 13.63 21.9302 13.39 21.7802C12.97 21.5202 12.71 21.0601 12.71 20.5601V15.0401C12.71 14.0801 13.24 13.2201 14.1 12.7901L16.25 11.7201L17.75 10.9701L19.95 9.87013C20.4 9.64013 20.92 9.66012 21.35 9.93012C21.77 10.1901 22.03 10.6502 22.03 11.1502Z" />
<path d="M22.6001 21.6398L21.8401 20.8798C22.2401 20.2798 22.4701 19.5597 22.4701 18.7897C22.4701 16.6797 20.7601 14.9697 18.6501 14.9697C16.5401 14.9697 14.8301 16.6797 14.8301 18.7897C14.8301 20.8997 16.5401 22.6097 18.6501 22.6097C19.4201 22.6097 20.1401 22.3797 20.7401 21.9797L21.5001 22.7397C21.6501 22.8897 21.8501 22.9697 22.0501 22.9697C22.2501 22.9697 22.4501 22.8897 22.6001 22.7397C22.9001 22.4297 22.9001 21.9398 22.6001 21.6398Z" />
</svg>

<?xml version="1.0" encoding="UTF-8"?>
<svg width="24" height="24" viewBox="0 0 24 24" xmlns="http://www.w3.org/2000/svg">
 <path d="m20.1 6.94c0 0.54-0.29 1.03-0.75 1.28l-1.74 0.94-1.48 0.79004-3.07 1.66c-0.33 0.18-0.69 0.27-1.06 0.27s-0.73-0.09-1.06-0.27l-6.29-3.39c-0.46-0.25-0.75-0.73997-0.75-1.28s0.29-1.03 0.75-1.28l1.97-1.06 1.57-0.84998 2.75-1.48c0.66-0.36 1.46-0.36 2.12 0l6.29 3.39c0.46 0.25 0.75 0.74003 0.75 1.28z" opacity=".4"/>
 <path d="m9.9002 12.79-5.85-2.93c-0.45-0.23-0.96999-0.2-1.4 0.06-0.43 0.26001-0.68 0.72001-0.68 1.22v5.53c0 0.96 0.52999 1.82 1.39 2.25l5.85 2.92c0.19999 0.1 0.42001 0.15 0.64001 0.15 0.25998 0 0.51998-0.07 0.74998-0.22 0.43-0.26 0.68-0.72 0.68-1.22v-5.53c0.01-0.94-0.52-1.8-1.38-2.23z" opacity=".4"/>
 <path d="m22.03 11.15v5.5299c0 0.95-0.53 1.81-1.39 2.24l-5.85 2.93c-0.2 0.1-0.42 0.15-0.64 0.15-0.26 0-0.52-0.0699-0.76-0.2199-0.42-0.26-0.68-0.7201-0.68-1.2201v-5.52c0-0.96 0.53-1.82 1.39-2.25l2.15-1.07 1.5-0.75 2.2-1.1c0.45-0.23 0.97-0.21001 1.4 0.05999 0.42 0.25998 0.68 0.72008 0.68 1.2201z" opacity=".4"/>
 <path d="m22.6 21.64-0.76-0.76c0.4-0.6 0.63-1.3201 0.63-2.0901 0-2.11-1.71-3.82-3.82-3.82s-3.82 1.71-3.82 3.82 1.71 3.82 3.82 3.82c0.77 0 1.49-0.23 2.09-0.63l0.76 0.76c0.15 0.15 0.35 0.23 0.55 0.23s0.4-0.08 0.55-0.23c0.3-0.31 0.3-0.7999 0-1.0999z"/>
</svg>
